svg/about/call.svg

<svg width="25" height="28" viewBox="0 0 25 28" fill="none" xmlns="http://www.w3.org/2000/svg">
<path d="M15.7844 26.88C7.41263 30.7062 -5.58189 5.44781 2.60119 1.1807L4.99555 0L8.96379 7.74671L6.59785 8.91264C4.11031 10.2467 9.29107 20.3674 11.8354 19.1332C11.9388 19.0867 14.173 17.9889 14.1809 17.9844L18.1821 25.7061C18.173 25.7106 15.9219 26.8175 15.7844 26.88ZM14.0366 11.6422L17.3514 12.6309C17.6048 11.782 17.5332 10.8365 17.0787 9.99788C16.6253 9.1581 15.8719 8.58081 15.0241 8.32854L14.0366 11.6422ZM16.0866 4.75803C17.8492 5.28304 19.4117 6.48078 20.3549 8.22513C21.2992 9.97061 21.4458 11.9331 20.9208 13.6945L18.881 13.0866C19.2503 11.8468 19.1458 10.4661 18.481 9.23764C17.8185 8.00921 16.7185 7.16716 15.4775 6.79897L16.0866 4.75803ZM17.1662 1.13638C19.8537 1.93753 22.2379 3.76369 23.6765 6.42737C25.1186 9.08991 25.3425 12.0843 24.5413 14.773L22.4504 14.1502C23.0913 11.9968 22.9117 9.59788 21.7594 7.46602C20.6049 5.33304 18.6958 3.86938 16.5423 3.22846L17.1662 1.13638Z" fill="black"/>
</svg>

<svg width="25" height="28" fill="none" xmlns="http://www.w3.org/2000/svg"><path d="M15.78 26.88C7.41 30.71-5.58 5.45 2.6 1.18L5 0l3.96 7.75L6.6 8.9c-2.49 1.34 2.7 11.46 5.24 10.22l2.34-1.15 4 7.73-2.4 1.17zm-1.74-15.24l3.31 1a3.44 3.44 0 00-2.33-4.31l-.98 3.31zm2.05-6.88a7.16 7.16 0 014.83 8.93l-2.04-.6a5.04 5.04 0 00-3.4-6.3l.6-2.03zm1.08-3.62c2.68.8 5.07 2.62 6.5 5.29a10.92 10.92 0 01.87 8.34l-2.09-.62a8.76 8.76 0 00-5.9-10.92l.62-2.1z" fill="#000"/></svg>
